img/arrow-50.svg

<svg fill="none" height="13" viewBox="0 0 16 13" width="16" xmlns="http://www.w3.org/2000/svg"><path d="m15.5987 6.86672c.3306-.33063.3306-.86668 0-1.19731l-5.3879-5.387903c-.33068-.3306284-.86673-.3306284-1.19736 0-.33063.330628-.33063.866683 0 1.197313l4.78926 4.78925-4.78926 4.78923c-.33063.3306-.33063.8667 0 1.1973.33063.3307.86668.3307 1.19736 0zm-14.14474-1.44528c-.467578 0-.846625.37905-.846625.84663s.379047.84662.846625.84662zm13.54604 0h-13.54604v1.69325h13.54604z" fill="#0080ff"/></svg>

<svg width="16" height="13" viewBox="0 0 16 13" fill="none" xmlns="http://www.w3.org/2000/svg">
<path d="M15.5987 6.86672C15.9293 6.53609 15.9293 6.00004 15.5987 5.66941L10.2108 0.281507C9.88012 -0.0491214 9.34407 -0.0491214 9.01344 0.281507C8.68281 0.612135 8.68281 1.14819 9.01344 1.47882L13.8027 6.26807L9.01344 11.0573C8.68281 11.3879 8.68281 11.924 9.01344 12.2546C9.34407 12.5853 9.88012 12.5853 10.2108 12.2546L15.5987 6.86672ZM1.45396 5.42144C0.986382 5.42144 0.607335 5.80049 0.607335 6.26807C0.607335 6.73565 0.986382 7.11469 1.45396 7.11469V5.42144ZM15 5.42144L1.45396 5.42144V7.11469L15 7.11469V5.42144Z" fill="#0080FF"/>
</svg>
